public/assets/stats/book-top-right.svg

<svg width="358" height="424" viewBox="0 0 358 424" fill="none" xmlns="http://www.w3.org/2000/svg">
<path d="M274.096 115.741C239.912 45.0409 190.412 24.4404 123.883 28.0001C122.076 28.0968 120.46 29.1824 119.677 30.8137L7.94912 263.737C6.21397 267.354 9.25874 271.761 13.2706 271.78C27.1643 271.846 55.6889 274.599 93.6808 291.89C148.41 316.799 162.781 346.331 162.781 346.331L274.096 115.741Z" fill="#0DAEF1"/>
<path d="M413.672 195.15C386.639 149.148 350.853 118.626 267.006 130.978L162.794 346.268C162.794 346.268 189.457 336.796 239.977 361.705C274.675 378.813 293.485 401.548 301.864 414.11C304.231 417.659 310.109 417.495 311.91 413.628L413.672 195.15Z" fill="#0DAEF1"/>
<path d="M266.653 97.9272C236.832 34.0765 192.628 16.5353 132.731 21.0736L26.3204 235.055C26.3204 235.055 55.6019 221.516 106.121 246.425C156.641 271.334 166.425 305.354 166.425 305.354L266.653 97.9272Z" fill="#F8F8F8"/>
<path d="M421.549 165.405C392.312 118.302 354.277 86.657 267.005 97.2985L166.284 305.357C166.284 305.357 197.082 292.256 250.376 318.551C303.671 344.846 314.636 379.455 314.636 379.455L421.549 165.405Z" fill="white"/>
<path d="M303.124 407.312C303.124 407.312 305.931 399.945 314.351 379.597C322.771 359.249 224.89 281.716 166.301 305.221C164.922 305.774 166.301 338.901 166.301 338.901C166.301 338.901 193.315 326.622 241.379 348.373C289.442 370.125 303.124 407.312 303.124 407.312Z" fill="#F8F8F8"/>
<path d="M166.301 338.901C166.301 338.901 166.651 332.257 166.651 305.243C166.651 278.229 80.6983 213.261 26.32 235.077C24.9409 235.631 26.32 264.876 26.32 264.876C26.32 264.876 53.3337 256.478 101.397 278.229C149.461 299.981 166.301 338.901 166.301 338.901Z" fill="#E2E2E2"/>
</svg>

<svg xmlns="http://www.w3.org/2000/svg" width="358" height="424" fill="none"><path fill="#0DAEF1" d="M274.096 115.741c-34.184-70.7-83.684-91.3-150.213-87.74a4.97 4.97 0 0 0-4.206 2.813L7.949 263.737c-1.735 3.617 1.31 8.024 5.322 8.043 13.893.066 42.418 2.819 80.41 20.11 54.729 24.909 69.1 54.441 69.1 54.441z"/><path fill="#0DAEF1" d="M413.672 195.15c-27.033-46.002-62.819-76.524-146.666-64.172l-104.212 215.29s26.663-9.472 77.183 15.437c34.698 17.108 53.508 39.843 61.887 52.405 2.367 3.549 8.245 3.385 10.046-.482z"/><path fill="#F8F8F8" d="M266.653 97.927c-29.821-63.85-74.025-81.392-133.922-76.853L26.321 235.055s29.28-13.539 79.8 11.37 60.304 58.929 60.304 58.929z"/><path fill="#fff" d="M421.549 165.405c-29.237-47.103-67.272-78.748-154.544-68.106L166.284 305.357s30.798-13.101 84.092 13.194c53.295 26.295 64.26 60.904 64.26 60.904z"/><path fill="#F8F8F8" d="M303.124 407.312s2.807-7.367 11.227-27.715-89.461-97.881-148.05-74.376c-1.379.553 0 33.68 0 33.68s27.014-12.279 75.078 9.472c48.063 21.752 61.745 58.939 61.745 58.939"/><path fill="#E2E2E2" d="M166.301 338.901s.35-6.644.35-33.658-85.953-91.982-140.331-70.166c-1.38.554 0 29.799 0 29.799s27.014-8.398 75.077 13.353c48.064 21.752 64.904 60.672 64.904 60.672"/></svg>
